assets/image/logo.svg

<svg width="170" height="60" viewBox="0 0 170 60" fill="none" xmlns="http://www.w3.org/2000/svg">
<g clip-path="url(#clip0_105_4)">
<path d="M35.5886 9.244L31.0194 14.4242L23.0059 7.42084L27.5751 2.24067L35.5886 9.244Z" fill="url(#paint0_linear_105_4)"/>
<path d="M46.98 33.6818L60.2706 45.2962L50.9704 55.8389L37.6797 44.2243L35.3611 42.1984L44.6615 31.6557L46.98 33.6818Z" fill="#2E8FE7"/>
<path d="M35.2661 46.9603L38.1923 49.5174L31.1134 57.5419L25.8685 52.9587L27.4151 51.2057L32.9477 44.9341L35.2661 46.9603Z" fill="#2D3DCC"/>
<path d="M49.8909 25.7277L51.8765 23.4769L57.1211 28.0602L52.5512 33.2405L49.6251 30.6835L52.2094 27.7538L49.8909 25.7277ZM49.6251 30.6835L47.3066 28.6573L49.8909 25.7277L52.2094 27.7538L49.6251 30.6835Z" fill="#1578D3"/>
<path d="M11.1281 36.9727L9.58183 38.7257L1.56783 31.7225L8.64674 23.698L14.2641 28.607L16.6608 30.7014L11.1281 36.9727Z" fill="#2FD6FF"/>
<path d="M28.3746 17.4228L19.0742 27.9655L16.6777 25.8711L3.51151 14.3655L12.8119 3.82279L25.9781 15.3284L28.3746 17.4228Z" fill="#1578D3"/>
<path d="M33.6041 11.495L31.0197 14.4244L28.6231 12.3302L23.0057 7.4212L27.5756 2.24086L35.5896 9.24406L33.6041 11.495Z" fill="#94EAFF"/>
<path d="M17.1557 59.8483L4.01472 48.2777L45.1517 1.54725L58.6879 12.7712L17.1557 59.8483Z" fill="#18B5DC"/>
<path d="M74.96 20.6H76.4V44H74.96V20.6ZM70.76 20.6H72.2V44H70.76V20.6ZM79.6421 20.6H97.6721V22.04H79.6421V20.6ZM89.9921 23.72H97.6721V25.16H91.4321V44H89.9921V23.72ZM85.8521 25.16H79.6421V23.72H87.2921V44H85.8521V25.16ZM104.896 20.6H106.336V39.11H116.266V40.55H104.896V20.6ZM100.786 20.6H102.226V42.56H116.266V44H100.786V20.6ZM124.12 20.6H125.56V44H124.12V20.6ZM119.92 20.6H121.36V44H119.92V20.6ZM130.962 20.6H146.592V22.04H132.402V44H130.962V20.6ZM135.042 23.72H146.592V25.16H136.482V30.62H145.302V32.06H135.042V23.72ZM135.042 33.62H145.302V35.06H136.482V44H135.042V33.62ZM150.298 20.6H166.498V22.04H151.738V42.56H167.098V44H150.298V20.6ZM154.318 23.72H166.498V25.16H155.758V29.78H164.968V31.22H154.318V23.72ZM154.318 32.81H164.968V34.25H155.758V39.44H167.098V40.88H154.318V32.81Z" fill="#282528"/>
</g>
<defs>
<linearGradient id="paint0_linear_105_4" x1="-25.5068" y1="1.56486" x2="63.5809" y2="34.9301" gradientUnits="userSpaceOnUse">
<stop stop-color="#C06FBB"/>
<stop offset="1" stop-color="#6E4D9B"/>
</linearGradient>
<clipPath id="clip0_105_4">
<rect width="170" height="60" fill="white"/>
</clipPath>
</defs>
</svg>

<svg xmlns="http://www.w3.org/2000/svg" width="170" height="60" fill="none"><g clip-path="url(#a)"><path fill="url(#b)" d="m35.589 9.244-4.57 5.18-8.013-7.003 4.57-5.18 8.013 7.003Z"/><path fill="#2E8FE7" d="m46.98 33.682 13.29 11.614-9.3 10.543-13.29-11.615-2.319-2.026 9.3-10.542 2.319 2.026Z"/><path fill="#2D3DCC" d="m35.266 46.96 2.926 2.557-7.079 8.025-5.244-4.583 1.546-1.753 5.533-6.272 2.318 2.026Z"/><path fill="#1578D3" d="m49.89 25.728 1.986-2.251 5.245 4.583-4.57 5.18-2.926-2.557 2.584-2.93-2.318-2.025Zm-.265 4.955-2.318-2.026 2.584-2.93 2.318 2.027-2.584 2.93Z"/><path fill="#2FD6FF" d="m11.128 36.973-1.546 1.753-8.014-7.003 7.079-8.025 5.617 4.909 2.397 2.094-5.533 6.272Z"/><path fill="#1578D3" d="m28.375 17.423-9.3 10.543-2.397-2.095L3.512 14.366l9.3-10.543 13.166 11.505 2.397 2.095Z"/><path fill="#94EAFF" d="m33.604 11.495-2.584 2.93-2.397-2.095-5.617-4.909 4.57-5.18 8.014 7.003-1.986 2.251Z"/><path fill="#18B5DC" d="M17.156 59.848 4.015 48.278l41.137-46.73L58.688 12.77 17.156 59.848Z"/><path fill="#282528" d="M74.96 20.6h1.44V44h-1.44V20.6Zm-4.2 0h1.44V44h-1.44V20.6Zm8.882 0h18.03v1.44h-18.03V20.6Zm10.35 3.12h7.68v1.44h-6.24V44h-1.44V23.72Zm-4.14 1.44h-6.21v-1.44h7.65V44h-1.44V25.16Zm19.044-4.56h1.44v18.51h9.93v1.44h-11.37V20.6Zm-4.11 0h1.44v21.96h14.04V44h-15.48V20.6Zm23.334 0h1.44V44h-1.44V20.6Zm-4.2 0h1.44V44h-1.44V20.6Zm11.042 0h15.63v1.44h-14.19V44h-1.44V20.6Zm4.08 3.12h11.55v1.44h-10.11v5.46h8.82v1.44h-10.26v-8.34Zm0 9.9h10.26v1.44h-8.82V44h-1.44V33.62Zm15.256-13.02h16.2v1.44h-14.76v20.52h15.36V44h-16.8V20.6Zm4.02 3.12h12.18v1.44h-10.74v4.62h9.21v1.44h-10.65v-7.5Zm0 9.09h10.65v1.44h-9.21v5.19h11.34v1.44h-12.78v-8.07Z"/></g><defs><linearGradient id="b" x1="-25.507" x2="63.581" y1="1.565" y2="34.93" gradientUnits="userSpaceOnUse"><stop stop-color="#C06FBB"/><stop offset="1" stop-color="#6E4D9B"/></linearGradient><clipPath id="a"><path fill="#fff" d="M0 0h170v60H0z"/></clipPath></defs></svg>
